img/serif.svg

<svg fill="none" height="60" viewBox="0 0 95 60" width="95" xmlns="http://www.w3.org/2000/svg"><g fill="#000"><path d="m10.847 43.5074c-3.36792 0-5.72547-1.0103-7.64999-2.5018-.57735-.4331-.86603-.5774-1.1066-.5774-.28868 0-.48113.3368-.76981.8179-.28868.5293-.529241.5774-.866032.5774-.288679 0-.5292441-.2406-.4330182-.7698.1924522-1.2029.6735832-7.3132.8179222-8.7085.048113-.2887.144339-.2887.336788-.2887l.7217.0481c.19245 0 .28868.0963.28868.385.04811 1.5396.14434 3.1273 1.73207 5.5811 1.44339 2.2613 4.08961 3.5603 6.73579 3.5603 2.8868 0 6.5434-1.7802 6.5434-6.1103 0-4.9557-3.5604-6.784-7.4094-8.1311-1.4915-.5293-4.95564-1.7321-7.02451-3.8972-1.58773-1.5877-2.405649-3.849-2.405649-7.0245 0-2.4057 1.491509-4.7632 2.983009-6.1585 1.73207-1.63582 4.13773-2.3094 6.73585-2.3094 2.7424 0 4.8594.81792 5.6773 1.20283.433.24056.6736.19245.9142-.04812l.6254-.57735c.2406-.19245.3849-.28868.6255-.28868s.3849.3849.3849.81792c0 1.684.6255 6.5915.6736 7.65 0 .2405-.0481.3368-.2406.3849l-.5773.1443c-.1444.0481-.2406 0-.2887-.1443-.3849-1.3953-1.0104-3.2717-2.983-5.3406-1.2991-1.3952-2.983-2.06883-5.24434-2.06883-4.28206 0-5.82168 3.17543-5.82168 5.62923 0 1.3472.28868 2.9349 1.49151 4.1858 1.39528 1.3953 4.08961 2.4538 5.48491 2.8868 3.3198 1.0585 6.0141 1.8764 7.7462 3.9934 1.2509 1.4915 2.117 3.3679 2.117 6.5434 0 5.6773-3.4642 10.5367-9.8151 10.5367z"/><path d="m41.2785 29.9877h-11.8839c-.0963.433-.1444 1.2028-.1444 2.3094 0 4.7151 2.983 8.2754 6.8321 8.2754 2.9349 0 5.0037-1.6839 5.8217-3.2716.0962-.1925.2886-.2887.433-.2406l.6255.3368c.1443.0481.2405.1924 0 .7217-.8661 1.9245-3.368 5.2443-7.65 5.2443-2.7425 0-5.7736-.8179-7.5538-3.416-1.6839-2.4538-2.1169-4.234-2.1169-7.6019 0-1.8764.4811-5.1 3.0311-7.65 2.0688-2.1169 4.4745-2.55 6.8801-2.55 5.533 0 7.0727 5.1963 7.0727 7.0727 0 .6735-.5774.7698-1.3472.7698zm-11.6915-1.4434h7.4576c.9141 0 1.299-.2406 1.299-.6736 0-1.1066-.5773-4.2821-3.7047-4.2821-2.117 0-4.1377 1.3953-5.0519 4.9557z"/><path d="m49.0142 34.5103v-4.5226c0-2.4538-.3849-2.9349-1.7321-3.6566l-.9141-.4812c-.2887-.0962-.3849-.1443-.3849-.3367v-.2887c0-.1925.0962-.2887.3849-.433l4.7632-2.4538c.2886-.1443.4811-.1925.6735-.1925.2887 0 .3368.2887.3368.5774l.2406 3.416h.1924c1.4434-2.2132 3.7048-4.1858 5.7736-4.1858 1.6359 0 2.4538 1.0104 2.4538 2.117 0 1.3952-1.1547 2.3575-2.0208 2.3575-.5292 0-1.0103-.1924-1.3952-.3849-.385-.2406-.9623-.3849-1.5878-.3849-.7698 0-2.0207.4811-2.8386 2.0207-.2887.5293-.4812 1.3953-.4812 1.5397v10.0075c0 1.4915.3368 1.9726 1.3472 1.9726h2.2613c.2887 0 .3368.1444.3368.433v.8661c0 .2886-.0481.433-.2406.433-.2886 0-2.5019-.1444-5.1-.1444-2.983 0-5.0037.1444-5.2924.1444-.1924 0-.2887-.0962-.2887-.4811v-.818c0-.3368.0963-.433.5293-.433h1.8764c.7217 0 1.0585-.2887 1.0585-.9141.0481-1.5878.0481-3.2717.0481-5.7736z"/><path d="m66.1225 35.8575v-7.0727c0-1.6358-.2887-2.5018-2.6943-2.8867-.3368-.0482-.433-.1444-.433-.3368v-.433c0-.1444.0962-.2406.3368-.3368 1.5396-.5774 3.3679-1.3472 5.1962-2.3576.3849-.1924.6254-.2887.9141-.2887.2406 0 .2887.2406.2406.5774-.0963.8179-.0963 3.849-.0963 7.8424v5.2444c0 1.8764 0 3.6084.0482 4.1377.0962.9141.2405 1.2509.7698 1.2509h2.2132c.3849 0 .4811.1444.4811.433v.818c0 .3367-.0962.4811-.433.4811-.3849 0-2.5981-.1444-4.6189-.1444-2.7905 0-4.6669.1444-5.1962.1444-.2405 0-.3849-.0962-.3849-.3849v-.9623c0-.2887.1444-.3849.4811-.3849h2.3576c.5292 0 .7217-.1924.7698-.9622.0481-1.4434.0481-2.9349.0481-4.3783zm.4811-19.149c-1.1066 0-2.7424-1.1066-2.7424-2.6944 0-1.2509 1.0585-2.6943 3.0311-2.6943 1.7802 0 2.5981 1.4434 2.5981 2.55 0 1.299-.866 2.8387-2.8868 2.8387z"/><path d="m79.1901 24.9839h-3.3198c-.2406 0-.3368-.0962-.2406-.5292l.1925-1.4434c.0481-.2887.1924-.3368.5773-.3368h2.7906v-.866c0-4.7632 1.3472-7.8906 3.2236-10.0076 2.55-2.79052 5.1962-3.8009 7.8905-3.8009 2.2613 0 4.3783.86604 4.3783 2.6943 0 1.1547-1.2509 2.0689-2.0207 2.0689-.4812 0-.9623-.0962-1.3472-.2887-.433-.2406-.9623-.866-1.1547-1.1066-.6255-.7698-1.2991-1.1066-2.2132-1.1066-1.251 0-2.55.3368-3.6085 1.684-1.7802 2.2613-1.684 6.4471-1.684 9.815v.9142h5.8217c.3368 0 .3849.2887.3368.4811l-.2406 1.5877c-.0481.1925-.2405.2406-.6254.2406h-5.2925v4.3302c0 5.6773 0 10.1037.0481 10.633.0963.8179.2406 1.2509 1.251 1.2509h2.7424c.4331 0 .5293.0962.5293.3849v.7698c0 .3849-.0963.5774-.3368.5774-.2887 0-2.0689-.1444-5.7736-.1444-2.6462 0-5.1.1444-5.4849.1444-.2887 0-.3849-.0962-.3849-.3368v-1.0585c0-.2406.0962-.3368.4812-.3368h2.3094c.9141 0 1.1066-.5773 1.1547-1.6839z"/></g></svg>

<svg width="95" height="60" viewBox="0 0 95 60" fill="none" xmlns="http://www.w3.org/2000/svg">
<path d="M10.847 43.5074C7.47908 43.5074 5.12153 42.4971 3.19701 41.0056C2.61966 40.5725 2.33098 40.4282 2.09041 40.4282C1.80173 40.4282 1.60928 40.765 1.3206 41.2461C1.03192 41.7754 0.791359 41.8235 0.454568 41.8235C0.165889 41.8235 -0.0746761 41.5829 0.0215498 41.0537C0.214002 39.8508 0.695133 33.7405 0.839472 32.3452C0.887585 32.0565 0.983811 32.0565 1.17626 32.0565L1.89796 32.1046C2.09041 32.1046 2.18664 32.2009 2.18664 32.4896C2.23475 34.0292 2.33098 35.6169 3.91871 38.0707C5.3621 40.332 8.00832 41.631 10.6545 41.631C13.5413 41.631 17.1979 39.8508 17.1979 35.5207C17.1979 30.565 13.6375 28.7367 9.7885 27.3896C8.297 26.8603 4.83286 25.6575 2.76399 23.4924C1.17626 21.9047 0.358341 19.6434 0.358341 16.4679C0.358341 14.0622 1.84985 11.7047 3.34135 10.3094C5.07342 8.67358 7.47908 8 10.0772 8C12.8196 8 14.9366 8.81792 15.7545 9.20283C16.1875 9.44339 16.4281 9.39528 16.6687 9.15471L17.2941 8.57736C17.5347 8.38491 17.679 8.28868 17.9196 8.28868C18.1602 8.28868 18.3045 8.67358 18.3045 9.1066C18.3045 10.7906 18.93 15.6981 18.9781 16.7566C18.9781 16.9971 18.93 17.0934 18.7375 17.1415L18.1602 17.2858C18.0158 17.3339 17.9196 17.2858 17.8715 17.1415C17.4866 15.7462 16.8611 13.8698 14.8885 11.8009C13.5894 10.4057 11.9055 9.73207 9.64416 9.73207C5.3621 9.73207 3.82248 12.9075 3.82248 15.3613C3.82248 16.7085 4.11116 18.2962 5.31399 19.5471C6.70927 20.9424 9.4036 22.0009 10.7989 22.4339C14.1187 23.4924 16.813 24.3103 18.5451 26.4273C19.796 27.9188 20.6621 29.7952 20.6621 32.9707C20.6621 38.648 17.1979 43.5074 10.847 43.5074Z" fill="black"/>
<path d="M41.2785 29.9877H29.3946C29.2983 30.4207 29.2502 31.1905 29.2502 32.2971C29.2502 37.0122 32.2332 40.5725 36.0823 40.5725C39.0172 40.5725 41.086 38.8886 41.904 37.3009C42.0002 37.1084 42.1926 37.0122 42.337 37.0603L42.9625 37.3971C43.1068 37.4452 43.203 37.5895 42.9625 38.1188C42.0964 40.0433 39.5945 43.3631 35.3125 43.3631C32.57 43.3631 29.5389 42.5452 27.7587 39.9471C26.0748 37.4933 25.6418 35.7131 25.6418 32.3452C25.6418 30.4688 26.1229 27.2452 28.6729 24.6952C30.7417 22.5783 33.1474 22.1452 35.553 22.1452C41.086 22.1452 42.6257 27.3415 42.6257 29.2179C42.6257 29.8914 42.0483 29.9877 41.2785 29.9877ZM29.587 28.5443H37.0446C37.9587 28.5443 38.3436 28.3037 38.3436 27.8707C38.3436 26.7641 37.7663 23.5886 34.6389 23.5886C32.5219 23.5886 30.5012 24.9839 29.587 28.5443Z" fill="black"/>
<path d="M49.0142 34.5103V29.9877C49.0142 27.5339 48.6293 27.0528 47.2821 26.3311L46.368 25.8499C46.0793 25.7537 45.9831 25.7056 45.9831 25.5132V25.2245C45.9831 25.032 46.0793 24.9358 46.368 24.7915L51.1312 22.3377C51.4198 22.1934 51.6123 22.1452 51.8047 22.1452C52.0934 22.1452 52.1415 22.4339 52.1415 22.7226L52.3821 26.1386H52.5745C54.0179 23.9254 56.2793 21.9528 58.3481 21.9528C59.984 21.9528 60.8019 22.9632 60.8019 24.0698C60.8019 25.465 59.6472 26.4273 58.7811 26.4273C58.2519 26.4273 57.7708 26.2349 57.3859 26.0424C57.0009 25.8018 56.4236 25.6575 55.7981 25.6575C55.0283 25.6575 53.7774 26.1386 52.9595 27.6782C52.6708 28.2075 52.4783 29.0735 52.4783 29.2179V39.2254C52.4783 40.7169 52.8151 41.198 53.8255 41.198H56.0868C56.3755 41.198 56.4236 41.3424 56.4236 41.631V42.4971C56.4236 42.7857 56.3755 42.9301 56.183 42.9301C55.8944 42.9301 53.6811 42.7857 51.083 42.7857C48.1 42.7857 46.0793 42.9301 45.7906 42.9301C45.5982 42.9301 45.5019 42.8339 45.5019 42.449V41.631C45.5019 41.2942 45.5982 41.198 46.0312 41.198H47.9076C48.6293 41.198 48.9661 40.9093 48.9661 40.2839C49.0142 38.6961 49.0142 37.0122 49.0142 34.5103Z" fill="black"/>
<path d="M66.1225 35.8575V28.7848C66.1225 27.149 65.8338 26.283 63.4282 25.8981C63.0914 25.8499 62.9952 25.7537 62.9952 25.5613V25.1283C62.9952 24.9839 63.0914 24.8877 63.332 24.7915C64.8716 24.2141 66.6999 23.4443 68.5282 22.4339C68.9131 22.2415 69.1536 22.1452 69.4423 22.1452C69.6829 22.1452 69.731 22.3858 69.6829 22.7226C69.5866 23.5405 69.5866 26.5716 69.5866 30.565V35.8094C69.5866 37.6858 69.5866 39.4178 69.6348 39.9471C69.731 40.8612 69.8753 41.198 70.4046 41.198H72.6178C73.0027 41.198 73.0989 41.3424 73.0989 41.631V42.449C73.0989 42.7857 73.0027 42.9301 72.6659 42.9301C72.281 42.9301 70.0678 42.7857 68.047 42.7857C65.2565 42.7857 63.3801 42.9301 62.8508 42.9301C62.6103 42.9301 62.4659 42.8339 62.4659 42.5452V41.5829C62.4659 41.2942 62.6103 41.198 62.947 41.198H65.3046C65.8338 41.198 66.0263 41.0056 66.0744 40.2358C66.1225 38.7924 66.1225 37.3009 66.1225 35.8575ZM66.6036 16.7085C65.497 16.7085 63.8612 15.6019 63.8612 14.0141C63.8612 12.7632 64.9197 11.3198 66.8923 11.3198C68.6725 11.3198 69.4904 12.7632 69.4904 13.8698C69.4904 15.1688 68.6244 16.7085 66.6036 16.7085Z" fill="black"/>
<path d="M79.1901 24.9839H75.8703C75.6297 24.9839 75.5335 24.8877 75.6297 24.4547L75.8222 23.0113C75.8703 22.7226 76.0146 22.6745 76.3995 22.6745H79.1901V21.8085C79.1901 17.0453 80.5373 13.9179 82.4137 11.8009C84.9637 9.01038 87.6099 8 90.3042 8C92.5655 8 94.6825 8.86604 94.6825 10.6943C94.6825 11.849 93.4316 12.7632 92.6618 12.7632C92.1806 12.7632 91.6995 12.667 91.3146 12.4745C90.8816 12.2339 90.3523 11.6085 90.1599 11.3679C89.5344 10.5981 88.8608 10.2613 87.9467 10.2613C86.6957 10.2613 85.3967 10.5981 84.3382 11.9453C82.558 14.2066 82.6542 18.3924 82.6542 21.7603V22.6745H88.4759C88.8127 22.6745 88.8608 22.9632 88.8127 23.1556L88.5721 24.7433C88.524 24.9358 88.3316 24.9839 87.9467 24.9839H82.6542V29.3141C82.6542 34.9914 82.6542 39.4178 82.7023 39.9471C82.7986 40.765 82.9429 41.198 83.9533 41.198H86.6957C87.1288 41.198 87.225 41.2942 87.225 41.5829V42.3527C87.225 42.7376 87.1287 42.9301 86.8882 42.9301C86.5995 42.9301 84.8193 42.7857 81.1146 42.7857C78.4684 42.7857 76.0146 42.9301 75.6297 42.9301C75.341 42.9301 75.2448 42.8339 75.2448 42.5933V41.5348C75.2448 41.2942 75.341 41.198 75.726 41.198H78.0354C78.9495 41.198 79.142 40.6207 79.1901 39.5141V24.9839Z" fill="black"/>
</svg>
